!!!COM: Lassus, Orlande di
!!!CDT: 1532///-1594///
!!!OTL: Salve regina mater
**kern	**kern	**kern	**kern	**kern	**kern
*Ivox	*Ivox	*Ivox	*Ivox	*Ivox	*Ivox
!!B	!Bar	!T	!A	!S2	!S1
=1	=1	=1	=1	=1	=1
*M2/2	*M2/2	*M2/2	*M2/2	*M2/2	*M2/2
*MM120	*MM120	*MM120	*MM120	*MM120	*MM120
2D	2A	2d	2f	2a	2dd
4AA	4A	4c#	4e	4a	4ee
4D	4A	4d	4f#	4a	4dd
=2	=2	=2	=2	=2	=2
2GG	2G	2d	2g	2b-	2dd
2D	2A	2d	2f#	2a	2dd
=3	=3	=3	=3	=3	=3
2AA	2A	2e	2a	4r	2cc#
.	.	.	.	[4a	.
4D	4A	4d	4f#	8a]	4dd
.	.	.	.	8a	.
4D	4A	[4d	4f#	4a	4dd
=4	=4	=4	=4	=4	=4
4G	4B	8d]	4g	4d	4dd
.	.	4G	.	.	.
4C	4c	.	4e	4g	4cc
.	.	[8c	.	.	.
4F	4A	8c]	4f	4c	4cc
.	.	4F	.	.	.
4BB-	4B-	.	4d	4f	4b-
.	.	8F	.	.	.
=5	=5	=5	=5	=5	=5
2BB-	2B-	2F	2d	2f	2b-
2r	2r	2F	2f	2cc	2a
=6	=6	=6	=6	=6	=6
1r	1r	4c	4e	4cc	4g
.	.	4G	4d	4b-	4g
.	.	2A	2c#	2a	2e
=7	=7	=7	=7	=7	=7
2r	2r	2.D	2d	2f#	2a
2GG	2G	.	2d	2g	2b
.	.	4d	.	.	.
=8	=8	=8	=8	=8	=8
4C	4G	4c	4e	4g	4cc
2BB-	2B-	2F	2f	2d	[4dd
.	.	.	.	.	8dd]
.	.	.	.	.	8dd
4D	4A	4F	4d	4a	[4dd
=9	=9	=9	=9	=9	=9
2AA	2A	2E	2e	2a	8dd]
.	.	.	.	.	16cc#
.	.	.	.	.	16b
.	.	.	.	.	4cc#
2D	2A	2D	2f#	2a	2dd
=10	=10	=10	=10	=10	=10
1r	1r	4r	2g	2b	2dd
.	.	4G	.	.	.
.	.	4c	4g	4cc	4ee
.	.	4c	4g	4cc	4ee
=11	=11	=11	=11	=11	=11
1r	1r	2f	2a	2cc	2ff
.	.	4c	4g	4cc	4ee
.	.	[4d	[4f	[4a	[4dd
=12	=12	=12	=12	=12	=12
1r	1r	4d]	4f]	4a]	4dd]
.	.	4B-	4d	4g	4dd
.	.	4A	4e	4a	4cc#
.	.	[4G	[4g	[4b-	[4dd
=13	=13	=13	=13	=13	=13
1r	1r	8G]	8g]	8b-]	8dd]
.	.	8G	8g	8b-	8dd
.	.	4F#	4d	4a	4dd
.	.	2G	2d	2g	2b-
=14	=14	=14	=14	=14	=14
2r	2r	2D	2d	2f#	2a
2AA	2E	2A	2c#	2r	2r
=15	=15	=15	=15	=15	=15
4GG	4G	4B	4d	1r	1r
[4C	[4G	[4c	[4e	.	.
8C]	8G]	8c]	8e]	.	.
8BB-	8B-	8d	8f	.	.
4F	4A	4c	4f	.	.
=16	=16	=16	=16	=16	=16
2C	2G	2c	4e	1r	1r
.	.	.	2e	.	.
2AA	2A	2c	.	.	.
.	.	.	[4f	.	.
=17	=17	=17	=17	=17	=17
2BB-	4.D	4.F	8f]	1r	1r
.	.	.	8e	.	.
.	.	.	2d	.	.
.	8E	8G	.	.	.
2AA	4F	4A	.	.	.
.	4E	4A	4c#	.	.
=18	=18	=18	=18	=18	=18
2GG	2G	2B-	4d	1r	1r
.	.	.	[4d	.	.
2D	2F	4.A	8d]	.	.
.	.	.	8e	.	.
.	.	.	[4f	.	.
.	.	8B-	.	.	.
=19	=19	=19	=19	=19	=19
2C	2G	2c	8f]	1r	1r
.	.	.	16e	.	.
.	.	.	16d	.	.
.	.	.	4e	.	.
4F	4A	4c	4f	.	.
4D	4A	4d	4f	.	.
=20	=20	=20	=20	=20	=20
4AA	4A	4c	4e	1r	1r
4C	4G	4c	4e	.	.
4GG	4G	4B-	4d	.	.
[4BB-	[4F	[4B-	[4d	.	.
=21	=21	=21	=21	=21	=21
4BB-]	4F]	4B-]	4d]	1r	1r
4FF	[4c	4A	4f	.	.
2GG	8c]	4.G	8e	.	.
.	16B-	.	8d	.	.
.	16A	.	.	.	.
.	4B-	.	[4d	.	.
.	.	8F	.	.	.
=22	=22	=22	=22	=22	=22
2AA	2A	2E	8d]	2r	2r
.	.	.	16c#	.	.
.	.	.	16B	.	.
.	.	.	4c#	.	.
2D	2A	2D	2d	2f#	4r
.	.	.	.	.	4a
=23	=23	=23	=23	=23	=23
1r	1r	1r	1r	4g	4b
.	.	.	.	8d	[4dd
.	.	.	.	8e	.
.	.	.	.	8f	8dd]
.	.	.	.	8e	4cc
.	.	.	.	[4a	.
.	.	.	.	.	16b
.	.	.	.	.	16a
=24	=24	=24	=24	=24	=24
1r	1r	2r	2r	8a]	2b
.	.	.	.	16g#	.
.	.	.	.	16f#	.
.	.	.	.	4g#	.
.	.	4r	4r	4a	4a
.	.	4d	4f	[4a	4dd
=25	=25	=25	=25	=25	=25
1r	1r	4c#	4e	8a]	4ee
.	.	.	.	8a	.
.	.	2d	2f	4b-	2dd
.	.	.	.	4a	.
.	.	4A	4e	[4a	4cc#
=26	=26	=26	=26	=26	=26
1r	1r	2B-	2f	8a]	2dd
.	.	.	.	16g	.
.	.	.	.	16f	.
.	.	.	.	4g	.
.	.	2A	2e	2a	2cc#
=27	=27	=27	=27	=27	=27
*M3/4	*M3/4	*M3/4	*M3/4	*M3/4	*M3/4
2D	2A	2d	2f#	2a	2dd
4GG	4G	4d	4g	4b	4dd
=28	=28	=28	=28	=28	=28
2C	2G	2c	2e	2cc	2g
4FF	4F	4c	4f	4cc	4a
=29	=29	=29	=29	=29	=29
4BB-	4F	4B-	4d	4f	4b-
4BB-	4F	4B-	4d	4f	4b-
4D	4D	4F	4d	4f	4a
=30	=30	=30	=30	=30	=30
2AA	2E	2A	2c#	2e	2a
4AA	4E	4A	4e	4a	4cc#
=31	=31	=31	=31	=31	=31
2FF#	2D	2d	2A	2a	2dd
4GG	4D	4d	4G	4b	4dd
=32	=32	=32	=32	=32	=32
4GG	4D	4G	4d	4b	4dd
4C	4E	4G	4c	4cc	4g
4AA	4E	4A	4c	4ee	4cc
=33	=33	=33	=33	=33	=33
4AA	4E	4A	4e	4cc	4a
2EE	2E	2B	2e	2b	2g#
=34	=34	=34	=34	=34	=34
*M2/2	*M2/2	*M2/2	*M2/2	*M2/2	*M2/2
1AA	2E	1A	1c#	2e	2a
.	2A	.	.	4r	4r
.	.	.	.	4e	4a
=35	=35	=35	=35	=35	=35
1r	2D	1r	4r	2f#	2a
.	.	.	4d	.	.
.	2G	.	4d	2g	2b
.	.	.	4d	.	.
=36	=36	=36	=36	=36	=36
1r	4F	1r	2f	4a	4cc
.	2B-	.	.	2b-	2dd
.	.	.	4f	.	.
.	4F	.	[4f	4a	4cc
=37	=37	=37	=37	=37	=37
1r	2c	2r	8f]	2g	2cc
.	.	.	16e	.	.
.	.	.	16d	.	.
.	.	.	4e	.	.
.	2F	4r	2f	2a	2cc
.	.	[4c	.	.	.
=38	=38	=38	=38	=38	=38
2.C	2.G	4c]	2e	2.g	2.cc
.	.	4c	.	.	.
.	.	[2c	4e	.	.
4FF	4F	.	4f	4cc	4a
=39	=39	=39	=39	=39	=39
4C	4G	4c]	4e	4cc	4g
4GG	4G	4d	[4g	4b-	4dd
2D	2A	2d	8g]	2a	2dd
.	.	.	16f#	.	.
.	.	.	16e	.	.
.	.	.	4f#	.	.
=40	=40	=40	=40	=40	=40
2GG	2G	2d	2g	2dd	2b
2D	2F#	2A	2r	2r	2r
=41	=41	=41	=41	=41	=41
4BB	2G	4D	1r	1r	1r
2C	.	2E	.	.	.
.	2A	.	.	.	.
4D	.	4F#	.	.	.
=42	=42	=42	=42	=42	=42
2.E	4c	2.G	1r	1r	1r
.	4B	.	.	.	.
.	4.c	.	.	.	.
[4F	.	[4A	.	.	.
.	8c	.	.	.	.
=43	=43	=43	=43	=43	=43
4F]	2c	4A]	1r	1r	1r
4E	.	4G	.	.	.
4D	4F	4A	.	.	.
4AA	[4A	4c	.	.	.
=44	=44	=44	=44	=44	=44
2E	8A]	2B	2r	2r	4r
.	16G#	.	.	.	.
.	16F#	.	.	.	.
.	4G#	.	.	.	2e
2AA	2E	2A	2c	4r	.
.	.	.	.	4e	[4a
=45	=45	=45	=45	=45	=45
1r	2D	1r	2d	8f	4a]
.	.	.	.	8g	.
.	.	.	.	8a	[4f
.	.	.	.	8b	.
.	2r	.	2A	4.cc	8f]
.	.	.	.	.	8e
.	.	.	.	.	8ee
.	.	.	.	8b	8dd
=46	=46	=46	=46	=46	=46
1r	1r	1r	2f	2a	8cc
.	.	.	.	.	8b
.	.	.	.	.	4a
.	.	.	[2e	[2g#	[2b
=47	=47	=47	=47	=47	=47
2r	[1E	2r	2e]	2g#]	2b]
[2AA	.	[2A	[2c#	2r	2r
=48	=48	=48	=48	=48	=48
2AA]	2E]	2A]	2c#]	1r	1r
4.GG	4.G	4.B-	[2d	.	.
8AA	16F	8A	.	.	.
.	16E	.	.	.	.
=49	=49	=49	=49	=49	=49
2BB-	2D	8G	2d]	1r	2r
.	.	8F	.	.	.
.	.	4G	.	.	.
2AA	2E	[2A	2c#	.	4r
.	.	.	.	.	4e
=50	=50	=50	=50	=50	=50
1D	2r	2A]	4r	4r	2f
.	.	.	4d	4a	.
.	4r	4r	2f	4b-	2d
.	4D	4A	.	[4a	.
=51	=51	=51	=51	=51	=51
1D	4F	2B-	2d	4a]	1dd
.	4G	.	.	[4g	.
.	2A	4A	2d	8g]	.
.	.	.	.	16f#	.
.	.	.	.	16e	.
.	.	4D	.	4f#	.
=52	=52	=52	=52	=52	=52
1GG	2G	4D	4d	1g	4b
.	.	4E	4G	.	[4cc
.	4.G	2D	2d	.	8cc]
.	.	.	.	.	16b
.	.	.	.	.	16a
.	.	.	.	.	4b
.	8F	.	.	.	.
=53	=53	=53	=53	=53	=53
2AA	4E	2A	4c#	2r	2a
.	4F	.	[4d	.	.
2AA	2E	2A	8d]	2e	4a
.	.	.	16c#	.	.
.	.	.	16B	.	.
.	.	.	4c#	.	[4a
=54	=54	=54	=54	=54	=54
2D	[1D	4A	4d	2f#	4a]
.	.	4A	4d	.	4a
[2GG	.	2G	2d	4g	2b-
.	.	.	.	4g	.
=55	=55	=55	=55	=55	=55
1GG]	1D_	4G	[1d	4b-	1g
.	.	4G	.	4b-	.
.	.	2G	.	2b-	.
=56	=56	=56	=56	=56	=56
1D	1D]	1A	1d]	1a	1f#
*-	*-	*-	*-	*-	*-
!!!ENC: Craig Stuart Sapp
!!!END: 2004/03/14/
!!!ONB: Test conversion with xml2hum program from MIDI via Finale 2004 & Dolet
